X: 4298
T: The Bracelet
N: Pub: J. Walsh, London, 1748
Z: 2012 John Chambers <jc:trillian.mit.edu>
N: The 2nd part has a begin-repeat but no end-repeat.
M: 9/8
L: 1/8
K: G
%
V: 1
|:\
G3 GBG BdB | G3 GBG afa | ece dBd cAc | BGB ADG FED |
G3 GBG BdB | G3 GBG afa | gdg ece dBc | BGB ADF G3 :|
|:\
b3 G2b aga | gfg efg fed | bgb afa geg | fdf e^ce d3 |
G3 GBG BdB | G3 GBG afa | ece dBd cAc | BGB ADG FED |
G3 GBG BdB | G3 GBG afa | gdg ece dBc | BGB ADF G3 |]
%
V: 2 clef=bass middle=d
|:\
g3 G3 z3 | g3 e3 d3 | c2a B2g A2f | g3 f2e d3 |\
B3 G3 z3 | g3 e3 d3 | B2b c'3 b2a | g2c d2D G3 :|
|:\
g3 b2g f2d | e3 ^c'3 d'3 | g3 f3 e3 | d3 A3 D3 |
z3 g3 f3- | f3 e3 d3 | c2a B2g A2f | G3 c3 d3 |
B3 g3 f3 | e3 e3 d3 | B2b c'3 b2a | g3 d3 G3 |]
%%begintext align
First Man cast down, the 2d Wo. at the same time cast up, and double figure round their own Partners .|
their Partners does the same :|
First Cu. gallops down, gallop up again, and cast off Right and Left quite round at Top, and foot it.
%%endtext

%%sep 1 1 500
%%sep 1 1 500

